X: 29457
T: Night Of The Feast, The
R: reel
M: 4/4
K: Gmajor
|:(3efe dB G2 GA|BGAG EGGE|DB,DE GBdB|A2 AB AGEB|
(3efe dBG2 GA|BGAG EGGE|DB,DE GBdB|AGAB G2Bd:|
|:(3efe dB dGGA|BGAG EGGB|(3efe dB dGGA|BGdB A2 Bd|
e3 B d2 GA|BGAG EGGE|DB,DE GBdB|AGAB G2 Bd:|

